!!!COM: Vivaldi, Antonio
!!!OTL: Concerto a violino solo, No. 6
!!!XEN: Violin Concerto No. 6
!!!OTP: Il Piacere
!!!OTA: Pleasure
!!!OPR: Il Cimento dell'armonia e dell'inventione
!!!XEN: The Contest of Harmony and Invention
!!!OPS: Opus 8
!!!ONM: No. 6
!!!OMV: Movement 2.
!!!YEC: Copyright 1996, Center for Computer Assisted Research in the Humanities
!!!YEM: Rights to all derivative electronic formats reserved.
!!!YEM: Refer to licensing agreement for important restrictions.
!!!OMD: Largo e cantabile
**kern	**kern	**kern	**kern	**kern	**Bnum
*Icello	*Iviola	*Ivioln	*Ivioln	*Ivioln	*Icemba
*Icemba	*	*	*	*	*
*ICstr	*ICstr	*ICstr	*ICstr	*ICstr	*ICklav
*ICklav	*	*	*	*	*
!cello	!viola 	!violino 2	!violino 1	!violino principale	!continuo
!basso continuo	!	!	!	!	!
*clefF4	*clefC3	*clefG2	*clefG2	*clefG2	*
*k[f#]	*k[f#]	*k[f#]	*k[f#]	*k[f#]	*k[f#]
*e:	*e:	*e:	*e:	*e:	*e:
*M12/8	*M12/8	*M12/8	*M12/8	*M12/8	*M12/8
=1-	=1-	=1-	=1-	=1-	=1-
8.e\L	8.ee\L	8.ee\L	8.ee\L	1.r	.
16f#\k	16ff#\k	16ff#\k	16ff#\k	.	.
8e\J	8ee\J	8ee\J	8ee\J	.	.
4e\	4ee\	4ee\	4ee\	.	.
8e\	8ee\	8ee\	8ee\	.	.
4d#\	4dd#\	4dd#\	4dd#\	.	7
8r	8r	8r	8r	.	.
8.dn\L	8.ddn\L	8.ddn\L	8.ddn\L	.	6
16e\k	16ee\k	16ee\k	16ee\k	.	.
8d\J	8dd\J	8dd\J	8dd\J	.	.
=2	=2	=2	=2	=2	=2
4c#\	4cc#\	4cc#\	4.cc#\	1.r	7
8r	8r	8r	.	.	.
8.cn\L	8.ccn\L	8.ccn\L	8.ccn\L	.	6
16d\k	16dd\k	16dd\k	16dd\k	.	.
8c\J	8cc\J	8cc\J	8cc\J	.	.
4.B\	4.b\	4.b\	4.b\	.	7 #
4r	4r	4r	4r	.	.
8r	8r	8r	8r	.	.
=3	=3	=3	=3	=3	=3
8.G\L	8.g\L	8.g/L	8.g/L	[4.ee\	.
16A\k	16a\k	16a/k	16a/k	.	.
8G\J	8g\J	8g/J	8g/J	.	.
4G\	4g\	4g/	4g/	8.ee\L]	.
.	.	.	.	16bb\k	.
8G\	8g\	8g/	8g/	8gg\J	.
8.A\L	8.a\L	8.a/L	8.a/L	[4.ee\	.
16B\k	16b\k	16b/k	16b/k	.	.
8A\J	8a\J	8a/J	8a/J	.	.
4A\	4a\	4a/	4a/	8.ee\L]	.
.	.	.	.	16ccc\k	.
8A\	8a\	8a/	8a/	8ee\J	.
=4	=4	=4	=4	=4	=4
8.B\L	8.b\L	8.b\L	8.b\L	4dd#\	#
16c\k	16cc\k	16cc\k	16cc\k	.	.
8B\J	8b\J	8b\J	8b\J	8aa\	.
4B\	4b\	4b\	4b\	8.gg\L	6
.	.	.	.	16aa\k	.
8BB/	8B/	8B/	8B/	8ff#\J	#
8.E\L	8.e\L	8.e/L	8.e/L	8.gg\L	.
16F#\k	16f#\k	16f#/k	16f#/k	16aa\k	.
8E\J	8e\J	8e/J	8e/J	8bb\J	.
4E\	4e\	4e/	4e/	4ee\	.
8E\	8e\	8e/	8e/	8ccc\	.
=5	=5	=5	=5	=5	=5
8.F#\L	8.f#\L	8.f#/L	8.f#/L	[4.aa#\	7 #
16G\k	16g\k	16g/k	16g/k	.	.
8F#\J	8f#\J	8f#/J	8f#/J	.	.
4F#\	4f#\	4f#/	4f#/	4aa#\]	.
8E\	8e\	8e/	8e/	8ccc#\	.
8.AA#/L	8.A#/L	8.A#/L	8.A#/L	4.ee\	6 5
16BB/k	16B/k	16B/k	16B/k	.	.
8AA#/J	8A#/J	8A#/J	8A#/J	.	.
4AA#/	4A#/	4A#/	4A#/	4ee\	.
8AA#/	8A#/	8A#/	8A#/	8ff#\	.
=6	=6	=6	=6	=6	=6
4BB/	4B/	4B/	4B/	8.dd\L	.
.	.	.	.	16cc#\k	.
8BB/	8B/	8B/	8B/	8b\J	.
4F#\	4f#\	4f#/	4f#/	4.cc#\	#
8FF#/	8F#/	8F#/	8F#/	.	.
8.B\L	8.b\L	8.b\L	8.b\L	4.b\	.
*	*	*	*strophe	*	*
*	*	*	*^	*	*
*	*	*	*S/S	*S/A	*	*
16c#\k	16cc#\k	16cc#\k	16cc#\k	16cc\k	.	.
*	*	*	*S/fin	*S/fin	*	*
*	*	*	*v	*v	*	*
*	*	*	*S-	*	*
8B\J	8b\J	8b\J	8b\J	.	.
4B\	4b\	4b\	4b\	4r	.
8B\	8b\	8b\	8b\	8r	.
=7	=7	=7	=7	=7	=7
4A#\	4a#\	4a#/	4a#/	1.r	7
8r	8r	8r	8r	.	.
8.An\L	8.an\L	8.an/L	8.an/L	.	6
16B\k	16b\k	16b/k	16b/k	.	.
8A\J	8a\J	8a/J	8a/J	.	.
4G#\	4g#\	4g#/	4g#/	.	7
8r	8r	8r	8r	.	.
8.Gn\L	8.gn\L	8.gn/L	8.gn/L	.	6
16A\k	16a\k	16a/k	16a/k	.	.
8G\J	8g\J	8g/J	8g/J	.	.
=8	=8	=8	=8	=8	=8
4.F#\	4.f#\	4.f#/	4.f#/	2.r	7 #
4r	4r	4r	4r	.	.
8r	8r	8r	8r	.	.
8.D\L	8.d\L	8.d/L	8.d/L	[4.b\	6
16E\k	16e\k	16e/k	16e/k	.	.
8D\J	8d\J	8d/J	8d/J	.	.
4D\	4d\	4d/	4d/	8.b\L]	.
.	.	.	.	16ff#\k	.
8D\	8d\	8d/	8d/	8dd\J	.
=9	=9	=9	=9	=9	=9
8.E\L	8.e\L	8.e/L	8.e/L	[4.b\	.
16F#\k	16f#\k	16f#/k	16f#/k	.	.
8E\J	8e\J	8e/J	8e/J	.	.
4E\	4e\	4e/	4e/	8.b\L]	.
.	.	.	.	16gg\k	.
8E\	8e\	8e/	8e/	8ee\J	.
8.F#\L	8.f#\L	8.f#/L	8.f#/L	4a#/	#
16G\k	16g\k	16g/k	16g/k	.	.
8F#\J	8f#\J	8f#/J	8f#/J	8ee\	.
4F#\	4f#\	4f#/	4f#/	8.dd\L	6
.	.	.	.	16ee\k	.
8FF#/	8F#/	8F#/	8F#/	8cc#\J	#5 #
=10	=10	=10	=10	=10	=10
8.BB/L	8.B/L	8.B/L	8.B/L	8.dd\L	.
16C#/k	16c#/k	16c#/k	16c#/k	16ee\k	.
8BB/J	8B/J	8B/J	8B/J	8ff#\J	.
4BB/	4B/	4B/	4B/	4b\	.
8BB/	8B/	8B/	8B/	8gg\	6
8.C#/L	8.c#\L	8.c#/L	8.c#/L	[4.ee#\	7 #
16D/k	16d\k	16d/k	16d/k	.	.
8C#/J	8c#\J	8c#/J	8c#/J	.	.
4C#/	4c#\	4c#/	4c#/	4ee#\]	.
8C#/	8c#\	8c#/	8c#/	8gg#\	.
=11	=11	=11	=11	=11	=11
8.E#\L	8.e#\L	8.e#/L	8.e#/L	[4.b\	6\ 5
16F#\k	16f#\k	16f#/k	16f#/k	.	.
8E#\J	8e#\J	8e#/J	8e#/J	.	.
4E#\	4e#\	4e#/	4e#/	4b\]	.
8E#\	8e#\	8e#/	8e#/	8cc#\	.
4F#\	4f#\	4f#/	4f#/	8.a/L	.
.	.	.	.	16g#/k	.
8FF#/	8F#/	8F#/	8F#/	8f#/J	.
4.FF#/	4.F#/	4.F#/	4.F#/	4.f#/	.
=12	=12	=12	=12	=12	=12
8.F#\L	8.f#\L	8.f#/L	8.f#/L	[4.dd\	6
16G\k	16g\k	16g/k	16g/k	.	.
8F#\J	8f#\J	8f#/J	8f#/J	.	.
4F#\	4f#\	4f#/	4f#/	8.dd\L]	.
.	.	.	.	16ee\k	.
8F#\	8f#\	8f#/	8f#/	8ff#\J	.
8.G\L	8.g\L	8.g/L	8.g/L	[4.b\	.
16A\k	16a\k	16a/k	16a/k	.	.
8G\J	8g\J	8g/J	8g/J	.	.
4G\	4g\	4g/	4g/	4b\]	.
8G\	8g\	8g/	8g/	8bb\	6
=13	=13	=13	=13	=13	=13
8.G\L	8.g\L	8.g/L	8.g/L	[4.ee\	6
16A\k	16a\k	16a/k	16a/k	.	.
8G\J	8g\J	8g/J	8g/J	.	.
4G\	4g\	4g/	4g/	8.ee\L]	.
.	.	.	.	16ff#\k	.
8G\	8g\	8g/	8g/	8gg\J	.
4A\	4a\	4a/	4a/	8.cc#\L	#
.	.	.	.	16b\k	.
8AA/	8A/	8A/	8A/	8a\J	.
4AA/	4A/	4A/	4A/	4gg\	7
8AA/	8A/	8A/	8A/	8ee\	.
=14	=14	=14	=14	=14	=14
4D\	4d\	4d/	4d/	8.ff#\L	.
.	.	.	.	16ee\k	.
8G\	8g\	8g/	8g/	8dd\J	.
4A\	4a\	4a/	4a/	8.dd\L	.
.	.	.	.	16ee\k	.
8AA/	8A/	8A/	8A/	8cc#\J	.
8.D\L	8.d\L	8.d/L	8.d/L	4.dd\	.
16E\k	16e\k	16e/k	16e/k	.	.
8D\J	8d\J	8d/J	8d/J	.	.
4D\	4d\	4d/	4d/	8r	.
.	.	.	.	8r	.
8D\	8d\	8d/	8d/	8ff#\	.
=15	=15	=15	=15	=15	=15
8.D#\L	8.d#\L	8.d#/L	8.d#/L	4aa\	6 5
16E\k	16e\k	16e/k	16e/k	.	.
8D#\J	8d#\J	8d#/J	8d#/J	8aa\	.
4BB/	4B/	4B/	4B/	8.aa\L	7
.	.	.	.	16gg\k	.
8BB/	8B/	8B/	8B/	8ff#\J	.
4E\	4e\	4e/	4e/	8.gg\L	.
.	.	.	.	16aa\k	.
8e\	8ee\	8ee\	8ee\	8bb\J	.
4e\	4ee\	4ee\	4ee\	4ee\	.
8e\	8ee\	8ee\	8ee\	8gg\	.
=16	=16	=16	=16	=16	=16
4d#\	4dd#\	4dd#\	4dd#\	8.ff#\L	7
.	.	.	.	16gg\k	.
8r	8r	8r	8r	8ff#\J	.
8.dn\L	8.ddn\L	8.ddn\L	8.ddn\L	4bb\	6
16e\k	16ee\k	16ee\k	16ee\k	.	.
8d\J	8dd\J	8dd\J	8dd\J	8r	.
4c#\	4cc#\	4cc#\	4cc#\	8.ee\L	7
.	.	.	.	16ff#\k	.
8r	8r	8r	8r	8ee\J	.
8.cn\L	8.ccn\L	8.ccn\L	8.ccn\L	4aa\	6
16d\k	16dd\k	16dd\k	16dd\k	.	.
8c\J	8cc\J	8cc\J	8cc\J	8r	.
=17	=17	=17	=17	=17	=17
4.B\	4.b\	4.b\	4.b\	8.dd#\L	7 #
.	.	.	.	16ee\k	.
.	.	.	.	8ff#\J	.
4r	4r	4r	4r	8.ff#\L	.
.	.	.	.	16gg\k	.
8r	8r	8r	8r	8aa\J	.
8.G\L	8.g\L	8.g/L	8.g/L	4gg\	6
16A\k	16a\k	16a/k	16a/k	.	.
8G\J	8g\J	8g/J	8g/J	8bb\	.
4G\	4g\	4g/	4g/	[4.ee\	.
8G\	8g\	8g/	8g/	.	.
=18	=18	=18	=18	=18	=18
8.A\L	8.a\L	8.a/L	8.a/L	4ee\]	.
16B\k	16b\k	16b/k	16b/k	.	.
8A\J	8a\J	8a/J	8a/J	8ccc\	.
4A\	4a\	4a/	4a/	4.ee\	.
8A\	8a\	8a/	8a/	.	.
4B\	4b\	4b\	4b\	4dd#\	#
8E\	8e\	8e/	8e/	8ee\	.
4B\	4b\	4b\	4b\	8.ee\L	6 4
.	.	.	.	16ff#\k	.
8BB/	8B/	8B/	8B/	8dd#\J	#
=19	=19	=19	=19	=19	=19
8.E\L	8.e\L	8.e/L	8.e/L	4.ee\	.
16F#\k	16f#\k	16f#/k	16f#/k	.	.
8E\J	8e\J	8e/J	8e/J	.	.
4E\	4e\	4e/	4e/	4r	.
8E\	8e\	8e/	8e/	8r	.
4AA/	4A/	4A/	4A/	2.r	.
8AA/	8A/	8A/	8A/	.	.
4BB/	4B/	4B/	4B/	.	.
8BB/	8B/	8B/	8B/	.	.
=20	=20	=20	=20	=20	=20
2.E\	2.e\	2.e/	2.e/	1.r	.
2.r	2.r	2.r	2.r	.	.
==|!	==|!	==|!	==|!	==|!	==|!
*-	*-	*-	*-	*-	*-
!!!CDT: 1678/3/4/-1741/7/28
!!!OCY: Italia
!!!ODE: Count Wenzeslaus von Morzin of Bohemia; Count Wenceslas of Morzin
!!!ODT: 1725///
!!!OPC: Venezia; Venice
!!!AGN: concerto
!!!AST: baroque
!!!AMT: compound quadruple
!!!PPR: Michel-Charles Le Ce`ne
!!!PC#: Le Cene No. 520
!!!PDT: 1725///
!!!PPP: Amsterdam
!!!SCT: RV 180
!!!SMA1: The cooperation of the following libraries is gratefully acknowledged:
!!!SMA2: Saechsische Landesbibliothek, Dresden; Biblioteca Nazionale
!!!SMA3: Universitaria, Turin; Henry Watson Music Library, Manchester.
!!!YOR: New York: Dover Publications, Inc. 1995
!!!AIN: cello cemba viola violn
!!!EEV: 1.0
!!!RDT: 1994/4/21/
!!!YER: 1996/10/31/
!!!YEP: Center for Computer Assisted Research in the Humanities
!!!YEN: United States of America
!!!EFL: 2/3
!!!ENC: Edmund Correia, Jr.
!!!EED: Eleanor Selfridge-Field
